X: 295
T: 296. Nun lob, mein Seel, den Herren
N: Derived from chor296.krn
C: Johann Sebastian Bach
%%abc-version 2.0
%%abcx-abcm2ps-target-version 5.9.1 (29 Sep 2008)
%%abc-creator hum2abc beta
%%abcx-conversion-date 2019/03/11 17:28:19
%%abc-edited-by Craig Stuart Sapp
%%humdrum-veritas 44143138
%%humdrum-veritas-data 511322275
%%
%%barnumbers 0
L: 1/4
M: 3/4
%%staves [1 2 3 4]
V: 1 clef=treble
V: 2 clef=treble
V: 3 clef=treble-8
V: 4 clef=bass
K: C
[V:1] c [I:setbarnb 1]| 
[V:2] G | 
[V:3] e | 
[V:4] C | 
[V:1] c2B | 
[V:2] A2G | 
[V:3] efg | 
[V:4] A,2E, | 
[V:1] A2G | 
[V:2] CDE/F/ | 
[V:3] f2e | 
[V:4] F,2C, | 
[V:1] cd2 | 
[V:2] GAG | 
[V:3] c2B | 
[V:4] E,F,G, | 
[V:1] !fermata!e2e | 
[V:2] !fermata!G2G | 
[V:3] !fermata!c2c | 
[V:4] !fermata!C,2C | 
[V:1] e2e | 
[V:2] BA^G | 
[V:3] Bcd | 
[V:4] ^G,^F,E, | 
[V:1] e2d | 
[V:2] AE/=F/=G | 
[V:3] c2B | 
[V:4] A,=G,=F, | 
[V:1] c/d/d3/c/ | 
[V:2] GAG | 
[V:3] c2B | 
[V:4] E,F,G, | 
[V:1] !fermata!c2 :|]  
[V:2] !fermata!E2 :|]  
[V:3] !fermata!G2 :|]  
[V:4] !fermata!C,2 :|]  
[V:1] c [I:setbarnb 9]| 
[V:2] E | 
[V:3] G | 
[V:4] C, | 
[V:1] cde | 
[V:2] F2E | 
[V:3] ABc | 
[V:4] F,2C | 
[V:1] d2e | 
[V:2] ^GAB | 
[V:3] d/e/fe | 
[V:4] B,A,^G, | 
[V:1] cB/A/B | 
[V:2] A2^G | 
[V:3] e2d | 
[V:4] A,E,2 | 
[V:1] !fermata!A2A | 
[V:2] !fermata!A2F/E/ | 
[V:3] !fermata!c2c | 
[V:4] !fermata!F,2F, | 
[V:1] dcB | 
[V:2] D2D | 
[V:3] A2G | 
[V:4] ^F,2G, | 
[V:1] cA2 | 
[V:2] EDC | 
[V:3] G^F2 | 
[V:4] C,D,2 | 
[V:1] !fermata!G2G | 
[V:2] !fermata!B,2E | 
[V:3] !fermata!G2B | 
[V:4] !fermata!G,,2E, | 
[V:1] c2c | 
[V:2] E2A | 
[V:3] cde | 
[V:4] A,B,C | 
[V:1] def | 
[V:2] G2G | 
[V:3] dcB | 
[V:4] B,A,G, | 
[V:1] ede | 
[V:2] GFE | 
[V:3] c2B | 
[V:4] C2^G, | 
[V:1] !fermata!c2c | 
[V:2] !fermata!E2A | 
[V:3] !fermata!c2f | 
[V:4] !fermata!A,2F, | 
[V:1] f2f | 
[V:2] A2A | 
[V:3] A2d | 
[V:4] D,E,F, | 
[V:1] ede | 
[V:2] _BFG | 
[V:3] d2^c | 
[V:4] G,A,2 | 
[V:1] !fermata!d2d | 
[V:2] !fermata!F2G | 
[V:3] !fermata!A2B | 
[V:4] !fermata!D,2G, | 
[V:1] e2e | 
[V:2] G2A | 
[V:3] c2c | 
[V:4] C,B,,A,, | 
[V:1] f2f | 
[V:2] FA2 | 
[V:3] A2d | 
[V:4] D,C,B,, | 
[V:1] g3/f/e/d/ | 
[V:2] G3 | 
[V:3] dBc | 
[V:4] E,D,C, | 
[V:1] !fermata!c2e | 
[V:2] !fermata!A2G | 
[V:3] !fermata!c2c/B/ | 
[V:4] !fermata!F,2C | 
[V:1] dcB | 
[V:2] A2G | 
[V:3] A2d | 
[V:4] ^F,2G, | 
[V:1] cA2 | 
[V:2] G2^F | 
[V:3] ced/c/ | 
[V:4] E,C,D, | 
[V:1] !fermata!G2G | 
[V:2] !fermata!D2D | 
[V:3] !fermata!B2B | 
[V:4] !fermata!G,,2G,/=F,/ | 
[V:1] c2B | 
[V:2] EFG | 
[V:3] Gde | 
[V:4] E,D,C, | 
[V:1] A2G | 
[V:2] CDE | 
[V:3] ABc | 
[V:4] F,2E, | 
[V:1] de3/d/ | 
[V:2] FE^F | 
[V:3] BcA | 
[V:4] D,C,2 | 
[V:1] !fermata!d2e | 
[V:2] !fermata!G2G | 
[V:3] !fermata!B2c | 
[V:4] !fermata!G,2C | 
[V:1] fed | 
[V:2] =FG2 | 
[V:3] c2B | 
[V:4] A,G,F, | 
[V:1] c/d/d3/c/ | 
[V:2] GAG | 
[V:3] c2B | 
[V:4] E,/F,/G,G,, | 
[V:1] !fermata!c2 |]  
[V:2] !fermata!E2 |]  
[V:3] !fermata!G2 |]  
[V:4] !fermata!C,2 |]  



